icons-rebrand/svg/document-create-filled.svg

<svg data-name="Layer 1" xmlns="http://www.w3.org/2000/svg" viewBox="0 0 32 32"><path d="M21.114 12h5.826a.571.571 0 0 0 .442-.918c-1.437-1.89-4.731-6.217-6.39-8.365a.556.556 0 0 0-.626-.181.554.554 0 0 0-.366.538v7.785c0 .809.194 1.141 1.114 1.141Z" fill="#0f0f0f"/><path d="M27.354 14.146A.5.5 0 0 0 27 14h-7a2 2 0 0 1-2-2V3a.5.5 0 0 0-.5-.5H9A4.5 4.5 0 0 0 4.5 7v18A4.5 4.5 0 0 0 9 29.5h14a4.5 4.5 0 0 0 4.5-4.5V14.5a.5.5 0 0 0-.146-.354Zm-6.647 6.565A1 1 0 0 1 20 21h-3v3a1 1 0 0 1-2 0v-3h-3a1 1 0 0 1 0-2h3v-3a1 1 0 0 1 2 0v3h3a1 1 0 0 1 .707 1.707Z" fill-rule="evenodd" fill="#0f0f0f"/></svg>

<svg xmlns="http://www.w3.org/2000/svg" id="Layer_1" data-name="Layer 1" viewBox="0 0 32 32"><defs><style>.cls-1,.cls-2{fill:#0f0f0f;}.cls-2{fill-rule:evenodd;}</style></defs><path d="M21.114,12H26.94a.57.57,0,0,0,.442-.918c-1.437-1.89-4.731-6.217-6.39-8.365A.554.554,0,0,0,20,3.074v7.785c0,.81.194,1.14,1.114,1.14Z M27.354,14.146A.5.5,0,0,0,27,14H20a2,2,0,0,1-2-2V3a.5.5,0,0,0-.5-.5H9A4.5,4.5,0,0,0,4.5,7V25A4.5,4.5,0,0,0,9,29.5H23A4.5,4.5,0,0,0,27.5,25V14.5A.5.5,0,0,0,27.354,14.146Zm-6.647,6.565A1,1,0,0,1,20,21H17v3a1,1,0,0,1-2,0V21H12a1,1,0,0,1,0-2h3V16a1,1,0,0,1,2,0v3h3a1,1,0,0,1,.707,1.707Z"/></svg>
